images/MIR.svg

<svg height="250" viewBox="0 0 250 250" width="250" xmlns="http://www.w3.org/2000/svg"><g fill-rule="evenodd"><path d="m250 125c0 69.035156-55.964844 125-125 125s-125-55.964844-125-125 55.964844-125 125-125 125 55.964844 125 125zm0 0" fill="#fff"/><path d="m120.535156 35.714844 24.558594 5.953125v28.675781l24.550781 5.957031v92.554688l-24.550781-5.960938v28.675781l-24.558594-5.960937v28.675781l-24.550781-5.960937v-28.675781l-24.554687-5.949219v-92.5625l24.554687 5.960937v-28.667968l24.550781 5.960937zm-29.460937 69.300781v54.335937l34.371093 8.335938v-54.332031zm0 0" fill="#172240"/></g></svg>

<svg xmlns="http://www.w3.org/2000/svg" xmlns:xlink="http://www.w3.org/1999/xlink" width="250px" height="250px" viewBox="0 0 250 250" version="1.1">
<g id="surface1">
<path style=" stroke:none;fill-rule:evenodd;fill:rgb(100%,100%,100%);fill-opacity:1;" d="M 250 125 C 250 194.035156 194.035156 250 125 250 C 55.964844 250 0 194.035156 0 125 C 0 55.964844 55.964844 0 125 0 C 194.035156 0 250 55.964844 250 125 Z M 250 125 "/>
<path style=" stroke:none;fill-rule:evenodd;fill:rgb(9.019608%,13.333334%,25.098041%);fill-opacity:1;" d="M 120.535156 35.714844 L 145.09375 41.667969 L 145.09375 70.34375 L 169.644531 76.300781 L 169.644531 168.855469 L 145.09375 162.894531 L 145.09375 191.570312 L 120.535156 185.609375 L 120.535156 214.285156 L 95.984375 208.324219 L 95.984375 179.648438 L 71.429688 173.699219 L 71.429688 81.136719 L 95.984375 87.097656 L 95.984375 58.429688 L 120.535156 64.390625 Z M 91.074219 105.015625 L 91.074219 159.351562 L 125.445312 167.6875 L 125.445312 113.355469 Z M 91.074219 105.015625 "/>
</g>
</svg>
